packages/icons/src/SVG/user-solid.svg

<svg width="12" height="12" viewBox="0 0 12 12" >
<path d="M12 12V11.0039C12 10.5508 11.8633 10.1484 11.5898 9.79688C11.3242 9.44531 10.9844 9.20703 10.5703 9.08203C10.4766 9.04297 10.3672 9.00391 10.2422 8.96484C10.125 8.92578 9.98438 8.88281 9.82031 8.83594C9.78125 8.82812 9.73438 8.81641 9.67969 8.80078C9.625 8.78516 9.55078 8.76172 9.45703 8.73047C9.38672 8.71484 9.32031 8.69922 9.25781 8.68359C9.20312 8.66016 9.14844 8.64062 9.09375 8.625C8.57031 8.46875 8.17578 8.28906 7.91016 8.08594C7.64453 7.88281 7.48047 7.62109 7.41797 7.30078C7.65234 7.05859 7.86719 6.76953 8.0625 6.43359C8.25781 6.09766 8.42188 5.73828 8.55469 5.35547C8.69531 4.97266 8.80469 4.58203 8.88281 4.18359C8.96094 3.77734 9 3.38281 9 3C9 2.45312 8.92188 1.98828 8.76562 1.60547C8.60938 1.22266 8.39453 0.914062 8.12109 0.679688C7.84766 0.4375 7.53125 0.265625 7.17187 0.164062C6.80469 0.0546875 6.41406 0 6 0C5.58594 0 5.19531 0.0546875 4.82812 0.164062C4.46875 0.265625 4.15234 0.4375 3.87891 0.679688C3.60547 0.914062 3.39062 1.22266 3.23438 1.60547C3.07812 1.98828 3 2.45312 3 3C3 3.38281 3.03906 3.77734 3.11719 4.18359C3.19531 4.58203 3.30469 4.97266 3.44531 5.35547C3.57812 5.73828 3.74219 6.09766 3.9375 6.43359C4.13281 6.76953 4.34766 7.05859 4.58203 7.30078C4.51953 7.62109 4.35547 7.88281 4.08984 8.08594C3.82422 8.28906 3.42969 8.46875 2.90625 8.625C2.85156 8.64062 2.79688 8.66016 2.74219 8.68359C2.67969 8.69922 2.61328 8.71484 2.54297 8.73047C2.44922 8.76172 2.375 8.78516 2.32031 8.80078C2.26562 8.81641 2.21875 8.82812 2.17969 8.83594C2.01562 8.88281 1.875 8.92578 1.75781 8.96484C1.63281 9.00391 1.52344 9.04297 1.42969 9.08203C1.01562 9.20703 0.675781 9.44531 0.410156 9.79688C0.136719 10.1484 0 10.5508 0 11.0039V12H12Z" />
</svg>

<!-- Generated by IcoMoon.io -->
<svg version="1.1" xmlns="http://www.w3.org/2000/svg" width="12" height="12" viewBox="0 0 12 12">
<title>user-solid</title>
<path d="M12 12v-0.996c0-0.453-0.137-0.856-0.41-1.207-0.266-0.352-0.605-0.59-1.019-0.715-0.094-0.039-0.203-0.078-0.328-0.117-0.117-0.039-0.258-0.082-0.422-0.129-0.039-0.008-0.086-0.020-0.141-0.035s-0.129-0.039-0.223-0.070c-0.070-0.016-0.137-0.031-0.199-0.047-0.055-0.023-0.109-0.043-0.164-0.059-0.523-0.156-0.918-0.336-1.184-0.539s-0.43-0.465-0.492-0.785c0.234-0.242 0.449-0.531 0.645-0.867s0.359-0.695 0.492-1.078c0.141-0.383 0.25-0.773 0.328-1.172 0.078-0.406 0.117-0.801 0.117-1.184 0-0.547-0.078-1.012-0.234-1.395s-0.371-0.691-0.645-0.926c-0.273-0.242-0.59-0.414-0.949-0.516-0.367-0.109-0.758-0.164-1.172-0.164s-0.805 0.055-1.172 0.164c-0.359 0.102-0.676 0.273-0.949 0.516-0.273 0.234-0.488 0.543-0.645 0.926s-0.234 0.848-0.234 1.395c0 0.383 0.039 0.777 0.117 1.184 0.078 0.398 0.188 0.789 0.328 1.172 0.133 0.383 0.297 0.742 0.492 1.078s0.41 0.625 0.645 0.867c-0.062 0.32-0.227 0.582-0.492 0.785s-0.66 0.383-1.184 0.539c-0.055 0.016-0.109 0.035-0.164 0.059-0.062 0.016-0.129 0.031-0.199 0.047-0.094 0.031-0.168 0.055-0.223 0.070s-0.102 0.027-0.141 0.035c-0.164 0.047-0.305 0.090-0.422 0.129-0.125 0.039-0.234 0.078-0.328 0.117-0.414 0.125-0.754 0.363-1.020 0.715-0.273 0.352-0.41 0.754-0.41 1.207v0.996h12z"></path>
</svg>
